X: 38
T: No_44_The_Two_Girls_on_the_Bridge.krn
N: Derived from No_44_The_Two_Girls_on_the_Bridge.krn
%%abc-version 2.0
%%abcx-abcm2ps-target-version 5.9.1 (29 Sep 2008)
%%abc-creator hum2abc beta
%%abcx-conversion-date 2019/03/15 08:35:01
%%humdrum-veritas 510786825
%%humdrum-veritas-data 3893203632
%%linebreak <none>
%%barnumbers 0
L: 1/8
M: 2/4
K: Db clef=bass
[K:clef=bass][M:2/4]D2C(C/D/) [I:setbarnb 2]| 
C2B,B, | 
B,C DD | 
C2CC | 
D2CC/D/ | 
C2B,B, | 
B,C DD | 
C2C z :|]  
D2ED | 
(DC) B,B, | 
B,C DD | 
C2C2 |]  



